images/50406976.svg

<?xml version="1.0" encoding="UTF-8"?>
<svg xmlns="http://www.w3.org/2000/svg" xmlns:xlink="http://www.w3.org/1999/xlink" width="300pt" height="300pt" viewBox="0 0 300 300" version="1.1">
<defs>
<g>
<symbol overflow="visible" id="glyph0-0">
<path style="stroke:none;" d="M 0.59375 2.125 L 0.59375 -8.46875 L 6.59375 -8.46875 L 6.59375 2.125 Z M 1.265625 1.453125 L 5.9375 1.453125 L 5.9375 -7.78125 L 1.265625 -7.78125 Z M 1.265625 1.453125 "/>
</symbol>
<symbol overflow="visible" id="glyph0-1">
<path style="stroke:none;" d="M 4.734375 -7.953125 C 3.867188 -7.953125 3.179688 -7.628906 2.671875 -6.984375 C 2.171875 -6.347656 1.921875 -5.472656 1.921875 -4.359375 C 1.921875 -3.265625 2.171875 -2.394531 2.671875 -1.75 C 3.179688 -1.113281 3.867188 -0.796875 4.734375 -0.796875 C 5.585938 -0.796875 6.265625 -1.113281 6.765625 -1.75 C 7.273438 -2.394531 7.53125 -3.265625 7.53125 -4.359375 C 7.53125 -5.472656 7.273438 -6.347656 6.765625 -6.984375 C 6.265625 -7.628906 5.585938 -7.953125 4.734375 -7.953125 Z M 4.734375 -8.90625 C 5.953125 -8.90625 6.925781 -8.492188 7.65625 -7.671875 C 8.394531 -6.847656 8.765625 -5.742188 8.765625 -4.359375 C 8.765625 -2.984375 8.394531 -1.882812 7.65625 -1.0625 C 6.925781 -0.238281 5.953125 0.171875 4.734375 0.171875 C 3.503906 0.171875 2.519531 -0.238281 1.78125 -1.0625 C 1.039062 -1.882812 0.671875 -2.984375 0.671875 -4.359375 C 0.671875 -5.742188 1.039062 -6.847656 1.78125 -7.671875 C 2.519531 -8.492188 3.503906 -8.90625 4.734375 -8.90625 Z M 4.734375 -8.90625 "/>
</symbol>
<symbol overflow="visible" id="glyph0-2">
<path style="stroke:none;" d="M 1.171875 -8.75 L 2.765625 -8.75 L 6.65625 -1.4375 L 6.65625 -8.75 L 7.796875 -8.75 L 7.796875 0 L 6.203125 0 L 2.328125 -7.3125 L 2.328125 0 L 1.171875 0 Z M 1.171875 -8.75 "/>
</symbol>
<symbol overflow="visible" id="glyph0-3">
<path style="stroke:none;" d="M 1.171875 -8.75 L 2.359375 -8.75 L 2.359375 -5.15625 L 6.65625 -5.15625 L 6.65625 -8.75 L 7.84375 -8.75 L 7.84375 0 L 6.65625 0 L 6.65625 -4.171875 L 2.359375 -4.171875 L 2.359375 0 L 1.171875 0 Z M 1.171875 -8.75 "/>
</symbol>
</g>
</defs>
<g id="surface12417">
<rect x="0" y="0" width="300" height="300" style="fill:rgb(100%,100%,100%);fill-opacity:1;stroke:none;"/>
<path style="fill:none;stroke-width:1;stroke-linecap:butt;stroke-linejoin:miter;stroke:rgb(0%,0%,0%);stroke-opacity:1;stroke-miterlimit:10;" d="M 195.914062 161.382812 L 195.914062 161.382812 M 196.175781 164.371094 L 197.183594 164.101562 M 196.433594 167.359375 L 198.449219 166.820312 M 196.691406 170.347656 L 199.714844 169.542969 M 196.953125 173.339844 L 200.980469 172.261719 M 197.210938 176.328125 L 202.246094 174.980469 M 197.46875 179.316406 L 203.511719 177.699219 M 197.726562 182.304688 L 204.78125 180.421875 M 197.988281 185.292969 L 206.046875 183.140625 M 198.246094 188.28125 L 207.3125 185.859375 M 198.449219 190.628906 L 208.304688 187.996094 "/>
<path style="fill:none;stroke-width:1.2;stroke-linecap:butt;stroke-linejoin:miter;stroke:rgb(100%,0%,0%);stroke-opacity:1;stroke-miterlimit:10;" d="M 203.378906 189.3125 L 193.148438 199.527344 "/>
<path style="fill:none;stroke-width:1.2;stroke-linecap:butt;stroke-linejoin:miter;stroke:rgb(0%,0%,0%);stroke-opacity:1;stroke-miterlimit:10;" d="M 193.148438 199.527344 L 182.921875 209.738281 "/>
<path style=" stroke:none;fill-rule:nonzero;fill:rgb(100%,100%,100%);fill-opacity:1;" d="M 198.378906 182.3125 L 208.378906 182.3125 L 208.378906 196.3125 L 198.378906 196.3125 Z M 198.378906 182.3125 "/>
<g style="fill:rgb(100%,0%,0%);fill-opacity:1;">
  <use xlink:href="#glyph0-1" x="198.378906" y="193.451172"/>
</g>
<path style="fill:none;stroke-width:1.2;stroke-linecap:butt;stroke-linejoin:miter;stroke:rgb(0%,0%,0%);stroke-opacity:1;stroke-miterlimit:10;" d="M 195.914062 161.382812 L 167.996094 153.878906 "/>
<path style="fill:none;stroke-width:1.2;stroke-linecap:butt;stroke-linejoin:miter;stroke:rgb(0%,0%,0%);stroke-opacity:1;stroke-miterlimit:10;" d="M 195.914062 161.382812 L 216.375 140.957031 "/>
<path style="fill:none;stroke-width:1.2;stroke-linecap:butt;stroke-linejoin:miter;stroke:rgb(0%,0%,0%);stroke-opacity:1;stroke-miterlimit:10;" d="M 171.28125 153 L 167.550781 139.035156 "/>
<path style="fill:none;stroke-width:1.2;stroke-linecap:butt;stroke-linejoin:miter;stroke:rgb(100%,0%,0%);stroke-opacity:1;stroke-miterlimit:10;" d="M 167.550781 139.035156 L 163.820312 125.070312 "/>
<path style="fill:none;stroke-width:1.2;stroke-linecap:butt;stroke-linejoin:miter;stroke:rgb(0%,0%,0%);stroke-opacity:1;stroke-miterlimit:10;" d="M 164.710938 154.757812 L 160.980469 140.792969 "/>
<path style="fill:none;stroke-width:1.2;stroke-linecap:butt;stroke-linejoin:miter;stroke:rgb(100%,0%,0%);stroke-opacity:1;stroke-miterlimit:10;" d="M 160.980469 140.792969 L 157.25 126.828125 "/>
<path style="fill:none;stroke-width:1.2;stroke-linecap:butt;stroke-linejoin:miter;stroke:rgb(0%,0%,0%);stroke-opacity:1;stroke-miterlimit:10;" d="M 167.996094 153.878906 L 157.769531 164.09375 "/>
<path style="fill:none;stroke-width:1.2;stroke-linecap:butt;stroke-linejoin:miter;stroke:rgb(0%,0%,100%);stroke-opacity:1;stroke-miterlimit:10;" d="M 157.769531 164.09375 L 147.539062 174.304688 "/>
<path style=" stroke:none;fill-rule:nonzero;fill:rgb(100%,100%,100%);fill-opacity:1;" d="M 155.535156 118.949219 L 165.535156 118.949219 L 165.535156 132.949219 L 155.535156 132.949219 Z M 155.535156 118.949219 "/>
<g style="fill:rgb(100%,0%,0%);fill-opacity:1;">
  <use xlink:href="#glyph0-1" x="155.535156" y="130.087891"/>
</g>
<path style="fill:none;stroke-width:1.2;stroke-linecap:butt;stroke-linejoin:miter;stroke:rgb(0%,0%,100%);stroke-opacity:1;stroke-miterlimit:10;" d="M 147.539062 174.304688 L 133.578125 170.554688 "/>
<path style="fill:none;stroke-width:1.2;stroke-linecap:butt;stroke-linejoin:miter;stroke:rgb(0%,0%,0%);stroke-opacity:1;stroke-miterlimit:10;" d="M 133.578125 170.554688 L 119.621094 166.804688 "/>
<path style=" stroke:none;fill-rule:nonzero;fill:rgb(100%,100%,100%);fill-opacity:1;" d="M 138.539062 167.304688 L 156.539062 167.304688 L 156.539062 181.304688 L 138.539062 181.304688 Z M 138.539062 167.304688 "/>
<g style="fill:rgb(0%,0%,100%);fill-opacity:1;">
  <use xlink:href="#glyph0-2" x="138.539062" y="178.443359"/>
  <use xlink:href="#glyph0-3" x="147.515625" y="178.443359"/>
</g>
<path style="fill:none;stroke-width:1.2;stroke-linecap:butt;stroke-linejoin:miter;stroke:rgb(0%,0%,0%);stroke-opacity:1;stroke-miterlimit:10;" d="M 119.621094 166.804688 L 108.378906 175.890625 "/>
<path style="fill:none;stroke-width:1.2;stroke-linecap:butt;stroke-linejoin:miter;stroke:rgb(0%,0%,100%);stroke-opacity:1;stroke-miterlimit:10;" d="M 108.378906 175.890625 L 97.140625 184.980469 "/>
<path style="fill:none;stroke-width:1.2;stroke-linecap:butt;stroke-linejoin:miter;stroke:rgb(0%,0%,0%);stroke-opacity:1;stroke-miterlimit:10;" d="M 109.28125 139.804688 L 119.621094 166.804688 "/>
<path style="fill:none;stroke-width:1.2;stroke-linecap:butt;stroke-linejoin:miter;stroke:rgb(0%,0%,0%);stroke-opacity:1;stroke-miterlimit:10;" d="M 103.960938 144.9375 L 112.234375 166.535156 "/>
<path style="fill:none;stroke-width:1.2;stroke-linecap:butt;stroke-linejoin:miter;stroke:rgb(0%,0%,100%);stroke-opacity:1;stroke-miterlimit:10;" d="M 97.140625 184.980469 L 72.90625 169.21875 "/>
<path style=" stroke:none;fill-rule:nonzero;fill:rgb(100%,100%,100%);fill-opacity:1;" d="M 88.140625 177.980469 L 106.140625 177.980469 L 106.140625 191.980469 L 88.140625 191.980469 Z M 88.140625 177.980469 "/>
<g style="fill:rgb(0%,0%,100%);fill-opacity:1;">
  <use xlink:href="#glyph0-2" x="88.140625" y="189.119141"/>
  <use xlink:href="#glyph0-3" x="97.117188" y="189.119141"/>
</g>
<path style="fill:none;stroke-width:1.2;stroke-linecap:butt;stroke-linejoin:miter;stroke:rgb(0%,0%,100%);stroke-opacity:1;stroke-miterlimit:10;" d="M 72.90625 169.21875 L 76.65625 155.257812 "/>
<path style="fill:none;stroke-width:1.2;stroke-linecap:butt;stroke-linejoin:miter;stroke:rgb(0%,0%,0%);stroke-opacity:1;stroke-miterlimit:10;" d="M 76.65625 155.257812 L 80.410156 141.296875 "/>
<path style="fill:none;stroke-width:1.2;stroke-linecap:butt;stroke-linejoin:miter;stroke:rgb(0%,0%,100%);stroke-opacity:1;stroke-miterlimit:10;" d="M 80.226562 168.191406 L 83.226562 157.023438 "/>
<path style="fill:none;stroke-width:1.2;stroke-linecap:butt;stroke-linejoin:miter;stroke:rgb(0%,0%,0%);stroke-opacity:1;stroke-miterlimit:10;" d="M 83.226562 157.023438 L 86.226562 145.855469 "/>
<path style=" stroke:none;fill-rule:nonzero;fill:rgb(100%,100%,100%);fill-opacity:1;" d="M 68.90625 162.21875 L 77.90625 162.21875 L 77.90625 176.21875 L 68.90625 176.21875 Z M 68.90625 162.21875 "/>
<g style="fill:rgb(0%,0%,100%);fill-opacity:1;">
  <use xlink:href="#glyph0-2" x="68.90625" y="173.357422"/>
</g>
<path style="fill:none;stroke-width:1.2;stroke-linecap:butt;stroke-linejoin:miter;stroke:rgb(0%,0%,0%);stroke-opacity:1;stroke-miterlimit:10;" d="M 80.410156 141.296875 L 109.28125 139.804688 "/>
<path style="fill:none;stroke-width:1.2;stroke-linecap:butt;stroke-linejoin:miter;stroke:rgb(0%,0%,0%);stroke-opacity:1;stroke-miterlimit:10;" d="M 80.410156 141.296875 L 62.230469 118.816406 "/>
<path style="fill:none;stroke-width:1.2;stroke-linecap:butt;stroke-linejoin:miter;stroke:rgb(0%,0%,0%);stroke-opacity:1;stroke-miterlimit:10;" d="M 62.230469 118.816406 L 35.25 108.4375 "/>
<path style="fill:none;stroke-width:1.2;stroke-linecap:butt;stroke-linejoin:miter;stroke:rgb(0%,0%,0%);stroke-opacity:1;stroke-miterlimit:10;" d="M 57.730469 90.261719 L 62.230469 118.816406 "/>
<path style="fill:none;stroke-width:1.2;stroke-linecap:butt;stroke-linejoin:miter;stroke:rgb(0%,0%,0%);stroke-opacity:1;stroke-miterlimit:10;" d="M 35.25 108.4375 L 57.730469 90.261719 "/>
<path style="fill:none;stroke-width:1.2;stroke-linecap:butt;stroke-linejoin:miter;stroke:rgb(0%,0%,0%);stroke-opacity:1;stroke-miterlimit:10;" d="M 216.375 140.957031 L 244.292969 148.457031 "/>
<path style="fill:none;stroke-width:1.2;stroke-linecap:butt;stroke-linejoin:miter;stroke:rgb(0%,0%,0%);stroke-opacity:1;stroke-miterlimit:10;" d="M 220.929688 135.136719 L 243.265625 141.140625 "/>
<path style="fill:none;stroke-width:1.2;stroke-linecap:butt;stroke-linejoin:miter;stroke:rgb(0%,0%,0%);stroke-opacity:1;stroke-miterlimit:10;" d="M 208.910156 113.023438 L 216.375 140.957031 "/>
<path style="fill:none;stroke-width:1.2;stroke-linecap:butt;stroke-linejoin:miter;stroke:rgb(0%,0%,0%);stroke-opacity:1;stroke-miterlimit:10;" d="M 244.292969 148.457031 L 264.75 128.03125 "/>
<path style="fill:none;stroke-width:1.2;stroke-linecap:butt;stroke-linejoin:miter;stroke:rgb(0%,0%,0%);stroke-opacity:1;stroke-miterlimit:10;" d="M 264.75 128.03125 L 257.289062 100.101562 "/>
<path style="fill:none;stroke-width:1.2;stroke-linecap:butt;stroke-linejoin:miter;stroke:rgb(0%,0%,0%);stroke-opacity:1;stroke-miterlimit:10;" d="M 257.433594 126.996094 L 251.460938 104.648438 "/>
<path style="fill:none;stroke-width:1.2;stroke-linecap:butt;stroke-linejoin:miter;stroke:rgb(0%,0%,0%);stroke-opacity:1;stroke-miterlimit:10;" d="M 257.289062 100.101562 L 229.371094 92.597656 "/>
<path style="fill:none;stroke-width:1.2;stroke-linecap:butt;stroke-linejoin:miter;stroke:rgb(0%,0%,0%);stroke-opacity:1;stroke-miterlimit:10;" d="M 229.371094 92.597656 L 208.910156 113.023438 "/>
<path style="fill:none;stroke-width:1.2;stroke-linecap:butt;stroke-linejoin:miter;stroke:rgb(0%,0%,0%);stroke-opacity:1;stroke-miterlimit:10;" d="M 232.128906 99.453125 L 215.765625 115.796875 "/>
</g>
</svg>

<svg xmlns="http://www.w3.org/2000/svg" xmlns:xlink="http://www.w3.org/1999/xlink" width="300pt" height="300pt" viewBox="0 0 300 300"><defs><symbol overflow="visible"><path d="M.594 2.125V-8.47h6V2.126zm.672-.672h4.671V-7.78h-4.67zm0 0"/></symbol><symbol overflow="visible" id="a"><path d="M4.734-7.953c-.867 0-1.554.324-2.062.97-.5.635-.75 1.51-.75 2.624 0 1.094.25 1.965.75 2.61.508.637 1.195.953 2.062.953.852 0 1.532-.316 2.032-.953.507-.645.765-1.516.765-2.61 0-1.113-.257-1.988-.764-2.624-.5-.645-1.18-.97-2.032-.97zm0-.953c1.22 0 2.192.414 2.922 1.234.74.824 1.11 1.93 1.11 3.313 0 1.376-.37 2.477-1.11 3.298C6.926-.24 5.953.17 4.734.17c-1.23 0-2.214-.41-2.953-1.234C1.04-1.882.673-2.984.673-4.36c0-1.382.367-2.488 1.11-3.312.738-.82 1.722-1.234 2.952-1.234zm0 0"/></symbol><symbol overflow="visible" id="b"><path d="M1.172-8.75h1.594l3.89 7.313V-8.75h1.14V0H6.204L2.328-7.313V0H1.172zm0 0"/></symbol><symbol overflow="visible" id="c"><path d="M1.172-8.75H2.36v3.594h4.296V-8.75h1.188V0H6.656v-4.172H2.36V0H1.17zm0 0"/></symbol></defs><g><path fill="#fff" d="M0 0h300v300H0z"/><path d="M195.914 161.383m.262 2.988l1.008-.268m-.75 3.257l2.015-.54m-1.76 3.528l3.025-.805m-2.762 3.797l4.027-1.078m-3.77 4.066l5.036-1.348m-4.777 4.336l6.042-1.617m-5.785 4.605l7.054-1.883m-6.792 4.87l8.06-2.15m-7.802 5.14l9.066-2.423m-8.863 4.77l9.855-2.634" stroke="#000" stroke-miterlimit="10" fill="none"/><path d="M203.38 189.313l-10.232 10.214" stroke-width="1.2" stroke="#f00" stroke-miterlimit="10" fill="none"/><path d="M193.148 199.527l-10.226 10.21" stroke-width="1.2" stroke="#000" stroke-miterlimit="10" fill="none"/><path d="M198.38 182.313h10v14h-10zm0 0" fill="#fff"/><use xlink:href="#a" x="198.379" y="193.451" fill="#f00"/><path d="M195.914 161.383l-27.918-7.504M195.914 161.383l20.46-20.426M171.28 153l-3.73-13.965" stroke-width="1.2" stroke="#000" stroke-miterlimit="10" fill="none"/><path d="M167.55 139.035l-3.73-13.965" stroke-width="1.2" stroke="#f00" stroke-miterlimit="10" fill="none"/><path d="M164.71 154.758l-3.73-13.965" stroke-width="1.2" stroke="#000" stroke-miterlimit="10" fill="none"/><path d="M160.98 140.793l-3.73-13.965" stroke-width="1.2" stroke="#f00" stroke-miterlimit="10" fill="none"/><path d="M167.996 153.88l-10.226 10.214" stroke-width="1.2" stroke="#000" stroke-miterlimit="10" fill="none"/><path d="M157.77 164.094l-10.23 10.21" stroke-width="1.2" stroke="#00f" stroke-miterlimit="10" fill="none"/><path d="M155.535 118.95h10v14h-10zm0 0" fill="#fff"/><use xlink:href="#a" x="155.535" y="130.088" fill="#f00"/><path d="M147.54 174.305l-13.962-3.75" stroke-width="1.2" stroke="#00f" stroke-miterlimit="10" fill="none"/><path d="M133.578 170.555l-13.957-3.75" stroke-width="1.2" stroke="#000" stroke-miterlimit="10" fill="none"/><path d="M138.54 167.305h18v14h-18zm0 0" fill="#fff"/><g fill="#00f"><use xlink:href="#b" x="138.539" y="178.443"/><use xlink:href="#c" x="147.516" y="178.443"/></g><path d="M119.62 166.805l-11.24 9.086" stroke-width="1.2" stroke="#000" stroke-miterlimit="10" fill="none"/><path d="M108.38 175.89l-11.24 9.09" stroke-width="1.2" stroke="#00f" stroke-miterlimit="10" fill="none"/><path d="M109.28 139.805l10.34 27M103.96 144.938l8.274 21.597" stroke-width="1.2" stroke="#000" stroke-miterlimit="10" fill="none"/><path d="M97.14 184.98l-24.234-15.76" stroke-width="1.2" stroke="#00f" stroke-miterlimit="10" fill="none"/><path d="M88.14 177.98h18v14h-18zm0 0" fill="#fff"/><g fill="#00f"><use xlink:href="#b" x="88.141" y="189.119"/><use xlink:href="#c" x="97.117" y="189.119"/></g><path d="M72.906 169.22l3.75-13.962" stroke-width="1.2" stroke="#00f" stroke-miterlimit="10" fill="none"/><path d="M76.656 155.258l3.754-13.96" stroke-width="1.2" stroke="#000" stroke-miterlimit="10" fill="none"/><path d="M80.227 168.19l3-11.167" stroke-width="1.2" stroke="#00f" stroke-miterlimit="10" fill="none"/><path d="M83.227 157.023l3-11.168" stroke-width="1.2" stroke="#000" stroke-miterlimit="10" fill="none"/><path d="M68.906 162.22h9v14h-9zm0 0" fill="#fff"/><use xlink:href="#b" x="68.906" y="173.357" fill="#00f"/><path d="M80.41 141.297l28.87-1.492M80.41 141.297l-18.18-22.48M62.23 118.816l-26.98-10.38M57.73 90.262l4.5 28.554M35.25 108.438L57.73 90.26M216.375 140.957l27.918 7.5M220.93 135.137l22.336 6.004M208.91 113.023l7.465 27.934M244.293 148.457l20.457-20.426M264.75 128.03l-7.46-27.928M257.434 126.996l-5.973-22.348M257.29 100.102l-27.92-7.504M229.37 92.598l-20.46 20.425M232.13 99.453l-16.364 16.344" stroke-width="1.2" stroke="#000" stroke-miterlimit="10" fill="none"/></g></svg>
